packages/icons/src/SVG/error-execute.svg

<svg width="12" height="12" viewBox="0 0 12 12" >
<path fill-rule="evenodd" clip-rule="evenodd" d="M12 6C12 9.31371 9.31371 12 6 12C2.68629 12 0 9.31371 0 6C0 2.68629 2.68629 0 6 0C9.31371 0 12 2.68629 12 6ZM8.6074 9.66806C7.87179 10.1919 6.97187 10.5 6 10.5C3.51472 10.5 1.5 8.48528 1.5 6C1.5 5.02813 1.80809 4.12821 2.33194 3.3926L8.6074 9.66806ZM9.66806 8.6074L3.3926 2.33194C4.12821 1.80809 5.02813 1.5 6 1.5C8.48528 1.5 10.5 3.51472 10.5 6C10.5 6.97187 10.1919 7.87179 9.66806 8.6074Z" />
</svg>

<!-- Generated by IcoMoon.io -->
<svg version="1.1" xmlns="http://www.w3.org/2000/svg" width="12" height="12" viewBox="0 0 12 12">
<title>error-execute</title>
<path d="M12 6c0-3.314-2.686-6-6-6s-6 2.686-6 6c0 3.314 2.686 6 6 6s6-2.686 6-6zM8.607 9.668c-0.736 0.524-1.636 0.832-2.607 0.832-2.485 0-4.5-2.015-4.5-4.5 0-0.972 0.308-1.872 0.832-2.607l6.275 6.275zM9.668 8.607l-6.275-6.275c0.736-0.524 1.636-0.832 2.607-0.832 2.485 0 4.5 2.015 4.5 4.5 0 0.972-0.308 1.872-0.832 2.607z"></path>
</svg>
